X: 746
T: Money In Both Pockets
M:6/8
L:1/8
B:O'Neill's 746
R:Jig
Z:"Transcribed by Bob Safranek, rjs@gsp.org"
K:Am
   G | c2 E EDE | GAG GFE | c2 E EDE | G2 g fed  |
       c2 E EDE | GAG GFE | DED  DEG | ABA A2 :|
|: G | cdg  gec | Bdg dBG | ceg  gec | f3 e2 f |
       gfe  agf | gfe dcB | cBA  GEG | ABA A2 :|


